X: 167
M: 6/8
L: 1/8
K: G
|: g |\
fed efg | fed gfe | dcB cBA | BAG efg |\
fed efg | fed gfe | dcB AGF | G3- G2 :|

